!!!OTL: ES BLIES EIN JAEGER WOL IN SEIN HORN
!!!ARE: Europa, Mitteleuropa, Deutschland, Berlin
!!!SCT: E0019A
!!!YEM: Copyright 1995, estate of Helmut Schaffrath.
**kern
*ICvox
*Ivox
*M4/4
*k[f#]
*G:
{4d
=1
4g
4g
4g
4dd
=2
4b
4dd
4g
4dd
=3
4b
4dd
4g
8r}
{8g
=4
8a
8a
8a
8a
8a
8g
8f#
8g
=5
8a
8g
8f#
8e
4d
4r}
=6
{4g
4g
4.g
8b
=7
4a
4a
4a
8r}
{8a
=8
8b
8a
8b
8cc
4dd
4g
=9
4a
4b
4g}
==
!!!AGN: Sage, Maerchen -, Zauber - Lied, Ballade ?
!!!ONB: ESAC (Essen Associative Code) Database: ERK1
!!!AMT: simple quadruple
!!!AIN: vox
!!!EED: Helmut Schaffrath
!!!EEV: 1.0
*-
